resources/images/param_support.svg

<svg width="18" height="18" viewBox="0 0 18 18" fill="none" xmlns="http://www.w3.org/2000/svg">
<path d="M2.5 4.5V14.5M4.5 4.5V14.5M6.5 4.5H0.5V14.5H6.5V4.5Z" stroke="#FF7C3F" stroke-linecap="round" stroke-linejoin="round"/>
<path d="M0.5 16.5H16.5M16.5 1.5V13.5C16.5 13.7652 16.3946 14.0196 16.2071 14.2071C16.0196 14.3946 15.7652 14.5 15.5 14.5H11.5V5.5C11.5 5.23478 11.3946 4.98043 11.2071 4.79289C11.0196 4.60536 10.7652 4.5 10.5 4.5H0.5V1.5C0.5 1.23478 0.605357 0.98043 0.792893 0.792893C0.98043 0.605357 1.23478 0.5 1.5 0.5H15.5C15.7652 0.5 16.0196 0.605357 16.2071 0.792893C16.3946 0.98043 16.5 1.23478 16.5 1.5Z" stroke="#949494" stroke-linecap="round" stroke-linejoin="round"/>
</svg>

<svg xmlns="http://www.w3.org/2000/svg" width="18" height="18" viewBox="0 0 18 18"><path d="M2.5,4.5v10m2-10v10m2-10H.5v10h6Z" style="fill:none;stroke:#009688;stroke-linecap:round;stroke-linejoin:round"/><path d="M16.5,1.5v12a1,1,0,0,1-1,1h-4v-9a1,1,0,0,0-1-1H.5v-3a1,1,0,0,1,1-1h14A1,1,0,0,1,16.5,1.5Zm-16,15h16" style="fill:none;stroke:#949494;stroke-linecap:round;stroke-linejoin:round"/></svg>
